22x22/actions/format-connect-node.svg

<svg xmlns="http://www.w3.org/2000/svg" viewBox="0 0 22 22"><path style="fill:currentColor;fill-opacity:1;stroke:none;color:#5d656b" d="M3 3v3h3V5h3V4H6V3H3zm13 0v1h-3v1h3v1h3V3h-3zM4 4h1v1H4V4zm13 0h1v1h-1V4zM3 16v3h3v-1h10v1h3v-3h-3v1H6v-1H3zm1 1h1v1H4v-1zm13 0h1v1h-1v-1z"/><path style="fill:currentColor;fill-opacity:1;stroke:none;color:#3daee9" d="m9 9.5 2 3 2-3H9z"/></svg>

<svg xmlns="http://www.w3.org/2000/svg" viewBox="0 0 22 22">
  <defs id="defs3051">
    <style type="text/css" id="current-color-scheme">
      .ColorScheme-Text {
        color:#5d656b;
      }
      .ColorScheme-Highlight {
        color:#3daee9;
      }
      </style>
  </defs>
 <path 
     style="fill:currentColor;fill-opacity:1;stroke:none" 
     d="M 3 3 L 3 6 L 6 6 L 6 5 L 9 5 L 9 4 L 6 4 L 6 3 L 3 3 z M 16 3 L 16 4 L 13 4 L 13 5 L 16 5 L 16 6 L 19 6 L 19 3 L 16 3 z M 4 4 L 5 4 L 5 5 L 4 5 L 4 4 z M 17 4 L 18 4 L 18 5 L 17 5 L 17 4 z M 3 16 L 3 19 L 6 19 L 6 18 L 9 18 L 13 18 L 16 18 L 16 19 L 19 19 L 19 16 L 16 16 L 16 17 L 13 17 L 9 17 L 6 17 L 6 16 L 3 16 z M 4 17 L 5 17 L 5 18 L 4 18 L 4 17 z M 17 17 L 18 17 L 18 18 L 17 18 L 17 17 z "
     class="ColorScheme-Text"
     />
 <path 
     style="fill:currentColor;fill-opacity:1;stroke:none" 
     d="M 9 9.5 L 11 12.5 L 13 9.5 L 9 9.5 z "
     class="ColorScheme-Highlight"
     />
</svg>
